UI/Weather/SVG/clear-night_outline_24px.svg

<svg width="24" height="24" viewBox="0 0 24 24" fill="none" xmlns="http://www.w3.org/2000/svg">
<path d="M15.49 4L14.49 5L15 6.5L13.5 5.5L12 6.5L12.5 5L11.5 4H13L13.5 2.5L14 4H15.49ZM21.49 12.5L20.74 9.75L22.49 8H20L19 5.5L18 8H15.5L17.25 9.75L16.5 12.5L19 11L21.49 12.5ZM7.19 5.41C6.96316 7.02919 7.11613 8.67894 7.6368 10.2288C8.15748 11.7787 9.03158 13.1862 10.19 14.34C11.3377 15.5041 12.743 16.3821 14.2924 16.9032C15.8418 17.4244 17.4921 17.574 19.11 17.34C18.8465 17.6301 18.5625 17.9008 18.26 18.15C16.5834 19.5376 14.435 20.223 12.2646 20.0627C10.0941 19.9025 8.06975 18.909 6.61506 17.2903C5.16036 15.6715 4.38809 13.5529 4.45984 11.3777C4.53158 9.20253 5.44179 7.13939 7 5.62L7.23 5.41H7.19ZM9 2C8.86163 1.99987 8.72497 2.03062 8.6 2.09C7.06375 2.78545 5.71904 3.84302 4.6811 5.17208C3.64317 6.50114 2.94297 8.06205 2.64051 9.72103C2.33805 11.38 2.44236 13.0876 2.94449 14.6974C3.44662 16.3073 4.3316 17.7713 5.52358 18.9642C6.71556 20.157 8.179 21.0431 9.78847 21.5464C11.3979 22.0497 13.1054 22.1552 14.7646 21.854C16.4239 21.5527 17.9853 20.8536 19.3151 19.8167C20.6449 18.7797 21.7034 17.4357 22.4 15.9C22.4906 15.652 22.4794 15.3782 22.3688 15.1384C22.2583 14.8986 22.0574 14.7122 21.81 14.62L21.54 14.56C21.4049 14.56 21.2715 14.5908 21.15 14.65C19.5675 15.379 17.7995 15.6053 16.0844 15.2984C14.3693 14.9914 12.7895 14.166 11.558 12.9335C10.3266 11.7009 9.50257 10.1204 9.19716 8.40502C8.89175 6.68964 9.1196 4.92187 9.85 3.34C9.94056 3.09197 9.92936 2.81819 9.81883 2.57839C9.7083 2.33859 9.50741 2.15224 9.26 2.06C9.1756 2.0312 9.08848 2.0111 9 2Z" fill="#0F1621"/>
</svg>

<svg xmlns="http://www.w3.org/2000/svg" width="24" height="24" viewBox="0 0 24 24"><rect width="24" height="24" style="fill:none"/><path d="M15.49,4l-1,1L15,6.5l-1.5-1L12,6.5l.5-1.5-1-1H13l.5-1.5L14,4Zm6,8.5-.75-2.75L22.49,8H20L19,5.5,18,8h-2.5l1.75,1.75-.75,2.75L19,11ZM7.19,5.41a10.54,10.54,0,0,0,3,8.93,10.43,10.43,0,0,0,8.92,3,8.14,8.14,0,0,1-.85.81A8.43,8.43,0,0,1,7,5.62l.23-.21M9,2a.93.93,0,0,0-.4.09A10.43,10.43,0,1,0,22.4,15.9a1,1,0,0,0-.59-1.28l-.27-.06a.89.89,0,0,0-.39.09A8.52,8.52,0,0,1,9.85,3.34a1,1,0,0,0-.59-1.28A1.31,1.31,0,0,0,9,2Z"/></svg>
